img/svg_icons/fb.svg

<svg width="18" height="18" viewBox="0 0 18 18" fill="none" xmlns="http://www.w3.org/2000/svg">
<path fill-rule="evenodd" clip-rule="evenodd" d="M8.92031 0.230713C13.7096 0.230713 17.5921 4.1132 17.5921 8.90249C17.5921 13.2308 14.421 16.8184 10.2753 17.4689V11.4092H12.2958L12.2958 11.4092H12.2959L12.6803 8.90249H10.2753V7.27586C10.2753 6.76152 10.4643 6.2569 11.0133 6.03674C11.1223 5.99298 11.2457 5.96046 11.3845 5.94134C11.4786 5.92838 11.5798 5.92158 11.6885 5.92158H12.7819V5.92157H12.782V3.7875C12.782 3.7875 11.7896 3.61813 10.8408 3.61813C10.3456 3.61813 9.8933 3.69316 9.49337 3.83966C9.25719 3.92618 9.03928 4.03763 8.8416 4.17328C8.03509 4.72669 7.56532 5.68285 7.56532 6.992V8.90249H5.36353V8.9025H5.3635V11.4092H7.56532V17.4689C3.41965 16.8184 0.248535 13.2307 0.248535 8.90249C0.248535 4.1132 4.13102 0.230713 8.92031 0.230713Z" fill="#BABABA"/>
</svg>

<svg width="18" height="18" fill="none" xmlns="http://www.w3.org/2000/svg"><path fill-rule="evenodd" clip-rule="evenodd" d="M8.92.23a8.672 8.672 0 011.355 17.239v-6.06h2.02l.385-2.507h-2.405V7.276c0-.514.19-1.02.738-1.24.11-.043.233-.076.371-.095.095-.013.196-.02.304-.02h1.094V3.788s-.992-.169-1.941-.169c-.495 0-.948.075-1.348.222a2.927 2.927 0 00-.651.333c-.807.554-1.277 1.51-1.277 2.819v1.91H5.364v2.507h2.201v6.06A8.672 8.672 0 018.92.23z" fill="#BABABA"/></svg>
